Newaita-dark/actions/24/go-jump.svg

<svg height="24" viewBox="0 0 24 24" width="24" xmlns="http://www.w3.org/2000/svg"><g fill="#e0e0e0"><path d="m9.921875 11.101562h8.929687c.550782 0 .992188.445313.992188.992188 0 .550781-.441406.992188-.992188.992188h-8.929687c-.546875 0-.992187-.441407-.992187-.992188 0-.546875.445312-.992188.992187-.992188zm0 0"/><path d="m11.136719 18.410156 7.015625-7.015625c.386718-.386719 1.015625-.386719 1.402344 0 .386718.386719.386718 1.015625 0 1.402344l-7.015626 7.015625c-.386718.386719-1.015624.386719-1.402343 0-.390625-.386719-.390625-1.015625 0-1.402344zm0 0"/><path d="m12.539062 4.375 7.015626 7.019531c.386718.386719.386718 1.015625 0 1.402344-.386719.386719-1.015626.386719-1.402344 0l-7.015625-7.015625c-.390625-.390625-.390625-1.015625 0-1.40625.386719-.386719 1.015625-.386719 1.402343 0zm0 0"/><path d="m5.953125 10.109375c1.097656 0 1.984375.890625 1.984375 1.984375 0 1.097656-.886719 1.984375-1.984375 1.984375-1.09375 0-1.984375-.886719-1.984375-1.984375 0-1.09375.890625-1.984375 1.984375-1.984375zm0 0"/></g></svg>

<svg xmlns="http://www.w3.org/2000/svg" xmlns:xlink="http://www.w3.org/1999/xlink" width="24px" height="24px" viewBox="0 0 24 24" version="1.1">
<g id="surface1">
     <defs>
  <style id="current-color-scheme" type="text/css">
   .ColorScheme-Text { color:#eeeeee; } .ColorScheme-Highlight { color:#424242; }
  </style>
 </defs>
<path style="fill:currentColor" class="ColorScheme-Text" d="M 9.921875 11.101562 L 18.851562 11.101562 C 19.402344 11.101562 19.84375 11.546875 19.84375 12.09375 C 19.84375 12.644531 19.402344 13.085938 18.851562 13.085938 L 9.921875 13.085938 C 9.375 13.085938 8.929688 12.644531 8.929688 12.09375 C 8.929688 11.546875 9.375 11.101562 9.921875 11.101562 Z M 9.921875 11.101562 "/>
     <defs>
  <style id="current-color-scheme" type="text/css">
   .ColorScheme-Text { color:#eeeeee; } .ColorScheme-Highlight { color:#424242; }
  </style>
 </defs>
<path style="fill:currentColor" class="ColorScheme-Text" d="M 11.136719 18.410156 L 18.152344 11.394531 C 18.539062 11.007812 19.167969 11.007812 19.554688 11.394531 C 19.941406 11.78125 19.941406 12.410156 19.554688 12.796875 L 12.539062 19.8125 C 12.152344 20.199219 11.523438 20.199219 11.136719 19.8125 C 10.746094 19.425781 10.746094 18.796875 11.136719 18.410156 Z M 11.136719 18.410156 "/>
     <defs>
  <style id="current-color-scheme" type="text/css">
   .ColorScheme-Text { color:#eeeeee; } .ColorScheme-Highlight { color:#424242; }
  </style>
 </defs>
<path style="fill:currentColor" class="ColorScheme-Text" d="M 12.539062 4.375 L 19.554688 11.394531 C 19.941406 11.78125 19.941406 12.410156 19.554688 12.796875 C 19.167969 13.183594 18.539062 13.183594 18.152344 12.796875 L 11.136719 5.78125 C 10.746094 5.390625 10.746094 4.765625 11.136719 4.375 C 11.523438 3.988281 12.152344 3.988281 12.539062 4.375 Z M 12.539062 4.375 "/>
     <defs>
  <style id="current-color-scheme" type="text/css">
   .ColorScheme-Text { color:#eeeeee; } .ColorScheme-Highlight { color:#424242; }
  </style>
 </defs>
<path style="fill:currentColor" class="ColorScheme-Text" d="M 5.953125 10.109375 C 7.050781 10.109375 7.9375 11 7.9375 12.09375 C 7.9375 13.191406 7.050781 14.078125 5.953125 14.078125 C 4.859375 14.078125 3.96875 13.191406 3.96875 12.09375 C 3.96875 11 4.859375 10.109375 5.953125 10.109375 Z M 5.953125 10.109375 "/>
</g>
</svg>
